src/assets/icons/calendar-events,simple,birthday.svg

<svg width="48" height="48" viewBox="0 0 48 48" fill="none" xmlns="http://www.w3.org/2000/svg">
<rect opacity="0.2" x="5" y="5" width="38" height="38" rx="4" fill="black"/>
<path opacity="0.6" fill-rule="evenodd" clip-rule="evenodd" d="M11.75 30L10 31V35C10 37.2091 11.7909 39 14 39H34C36.2091 39 38 37.2091 38 35V31L36.25 30C35.9963 29.8551 35.8695 29.7826 35.7449 29.7257C34.9542 29.3651 34.0458 29.3651 33.2551 29.7257C33.1305 29.7826 33.0037 29.8551 32.75 30C32.4963 30.145 32.3695 30.2174 32.2449 30.2743C31.4542 30.6349 30.5458 30.6349 29.7551 30.2743C29.6305 30.2174 29.5037 30.145 29.25 30C28.9963 29.8551 28.8695 29.7826 28.7449 29.7257C27.9542 29.3651 27.0458 29.3651 26.2551 29.7257C26.1305 29.7826 26.0037 29.8551 25.75 30C25.4963 30.145 25.3695 30.2174 25.2449 30.2743C24.4542 30.6349 23.5458 30.6349 22.7551 30.2743C22.6305 30.2174 22.5037 30.145 22.25 30C21.9963 29.8551 21.8695 29.7826 21.7449 29.7257C20.9542 29.3651 20.0458 29.3651 19.2551 29.7257C19.1305 29.7826 19.0037 29.8551 18.75 30C18.4963 30.145 18.3695 30.2174 18.2449 30.2743C17.4542 30.6349 16.5458 30.6349 15.7551 30.2743C15.6305 30.2174 15.5037 30.145 15.25 30C14.9963 29.8551 14.8695 29.7826 14.7449 29.7257C13.9542 29.3651 13.0458 29.3651 12.2551 29.7257C12.1305 29.7826 12.0037 29.8551 11.75 30ZM38 26.9474V25H37.992C38 25.5868 38 26.2333 38 26.9474ZM10 26.9474C10 26.2333 10 25.5868 10.008 25H10V26.9474Z" fill="black"/>
<path opacity="0.6" d="M22 16C22 14.8954 22.8954 14 24 14C25.1046 14 26 14.8954 26 16V20H22V16Z" fill="black"/>
<path d="M24 14C20.0426 14 23.0106 8 24 8C24.9893 8 27.9574 14 24 14Z" fill="black"/>
<path d="M10 31L11.75 30.2143C12.2612 29.9848 12.5168 29.87 12.7782 29.8052C13.2522 29.6877 13.7478 29.6877 14.2218 29.8052C14.4832 29.87 14.7388 29.9848 15.25 30.2143C15.7612 30.4438 16.0168 30.5586 16.2782 30.6234C16.7522 30.7409 17.2478 30.7409 17.7218 30.6234C17.9832 30.5586 18.2388 30.4438 18.75 30.2143C19.2612 29.9848 19.5168 29.87 19.7782 29.8052C20.2522 29.6877 20.7478 29.6877 21.2218 29.8052C21.4832 29.87 21.7388 29.9848 22.25 30.2143C22.7612 30.4438 23.0168 30.5586 23.2782 30.6234C23.7522 30.7409 24.2478 30.7409 24.7218 30.6234C24.9832 30.5586 25.2388 30.4438 25.75 30.2143C26.2612 29.9848 26.5168 29.87 26.7782 29.8052C27.2522 29.6877 27.7478 29.6877 28.2218 29.8052C28.4832 29.87 28.7388 29.9848 29.25 30.2143C29.7612 30.4438 30.0168 30.5586 30.2782 30.6234C30.7522 30.7409 31.2478 30.7409 31.7218 30.6234C31.9832 30.5586 32.2388 30.4438 32.75 30.2143C33.2612 29.9848 33.5168 29.87 33.7782 29.8052C34.2522 29.6877 34.7478 29.6877 35.2218 29.8052C35.4832 29.87 35.7388 29.9848 36.25 30.2143L38 31V28C38 24.2288 38 22.3431 36.8284 21.1716C35.6569 20 33.7712 20 30 20H18C14.2288 20 12.3431 20 11.1716 21.1716C10 22.3431 10 24.2288 10 28V31Z" fill="black"/>
</svg>

<svg xmlns="http://www.w3.org/2000/svg" width="48" height="48" fill="none" viewBox="0 0 48 48">
  <rect width="38" height="38" x="5" y="5" fill="#000" opacity=".2" rx="4"/>
  <path fill="#000" fill-rule="evenodd" d="M11.75 30L10 31v4a4 4 0 004 4h20a4 4 0 004-4v-4l-1.75-1c-.254-.145-.38-.217-.505-.274a3 3 0 00-2.49 0c-.125.057-.251.13-.505.274-.254.145-.38.217-.505.274a3 3 0 01-2.49 0A6.682 6.682 0 0129.25 30c-.254-.145-.38-.217-.505-.274a3 3 0 00-2.49 0c-.124.057-.251.13-.505.274-.254.145-.38.217-.505.274a3 3 0 01-2.49 0A6.682 6.682 0 0122.25 30c-.254-.145-.38-.217-.505-.274a3 3 0 00-2.49 0c-.124.057-.251.13-.505.274-.254.145-.38.217-.505.274a3 3 0 01-2.49 0A6.682 6.682 0 0115.25 30c-.254-.145-.38-.217-.505-.274a3 3 0 00-2.49 0c-.125.057-.251.13-.505.274zM38 26.947V25h-.008c.008.587.008 1.233.008 1.947zm-28 0c0-.714 0-1.36.008-1.947H10v1.947z" clip-rule="evenodd" opacity=".6"/>
  <path fill="#000" d="M22 16a2 2 0 114 0v4h-4v-4z" opacity=".6"/>
  <path fill="#000" d="M24 14c-3.957 0-.99-6 0-6s3.957 6 0 6zM10 31l1.75-.786c.511-.23.767-.344 1.028-.409a3 3 0 011.444 0c.261.065.517.18 1.028.41.511.229.767.344 1.028.408a3 3 0 001.444 0c.261-.064.517-.18 1.028-.409.511-.23.767-.344 1.028-.409a3 3 0 011.444 0c.261.065.517.18 1.028.41.511.229.767.344 1.028.408a3 3 0 001.444 0c.261-.064.517-.18 1.028-.409.511-.23.767-.344 1.028-.409a3 3 0 011.444 0c.261.065.517.18 1.028.41.511.229.767.344 1.028.408a3 3 0 001.444 0c.261-.064.517-.18 1.028-.409.511-.23.767-.344 1.028-.409a3 3 0 011.444 0c.261.065.517.18 1.028.41L38 31v-3c0-3.771 0-5.657-1.172-6.828C35.657 20 33.771 20 30 20H18c-3.771 0-5.657 0-6.828 1.172C10 22.343 10 24.229 10 28v3z"/>
</svg>
